proprietary/assets/icons/navigatie/richtingwijzer.svg

<svg height="64" viewBox="0 0 64 64" width="64" xmlns="http://www.w3.org/2000/svg"><path d="m0 0h64v64h-64z" fill="none"/><path d="m58.7165 14.5748-3.1406-4.711c-.3562-.5341-1.0188-.8638-1.7365-.8638h-24.3242c-.0209-.0562-.0673-.2623.2499-.3641.1971-.0632 2.5091-.5176 4.2349-.8532v-3.1263c0-1.1638-1.567-1.4536-3.5-1.4536s-3.5.2898-3.5 1.4536v4.3436h-5c-.5523 0-1 .4477-1 1v10c0 .5523.4477 1 1 1h31.8394c.7177 0 1.3804-.3297 1.7365-.8638l3.1406-4.711c.1717-.2575.1717-.5929 0-.8504z"/><path d="m41 23h-31.8394c-.7177 0-1.3804.3297-1.7365.8638l-3.1406 4.711c-.1717.2575-.1717.593 0 .8505l3.1406 4.711c.3562.534 1.0188.8637 1.7365.8637h17.8394 4.4848c.0209.0562.0673.2623-.2499.3641-.1971.0632-2.5092.5176-4.2349.8532v26.7827h7v-28h7c.5523 0 1-.4477 1-1v-10c0-.5523-.4477-1-1-1z"/></svg>

<?xml version="1.0" encoding="utf-8"?>
<!-- Generator: Adobe Illustrator 19.1.0, SVG Export Plug-In . SVG Version: 6.00 Build 0)  -->
<svg version="1.2" baseProfile="tiny" xmlns="http://www.w3.org/2000/svg" xmlns:xlink="http://www.w3.org/1999/xlink" x="0px"
	 y="0px" width="64px" height="64px" viewBox="0 0 64 64" xml:space="preserve">
<g id="_x36_4px_Box">
	<rect fill="none" width="64" height="64"/>
</g>
<g id="Icon">
	<g>
		<path d="M58.7165,14.5748l-3.1406-4.711C55.2197,9.3297,54.5571,9,53.8394,9H29.5152c-0.0209-0.0562-0.0673-0.2623,0.2499-0.3641
			C29.9622,8.5727,32.2742,8.1183,34,7.7827V4.6564c0-1.1638-1.567-1.4536-3.5-1.4536S27,3.4926,27,4.6564V9h-5
			c-0.5523,0-1,0.4477-1,1v10c0,0.5523,0.4477,1,1,1h31.8394c0.7177,0,1.3804-0.3297,1.7365-0.8638l3.1406-4.711
			C58.8882,15.1677,58.8882,14.8323,58.7165,14.5748z"/>
		<path d="M41,23H9.1606c-0.7177,0-1.3804,0.3297-1.7365,0.8638l-3.1406,4.711c-0.1717,0.2575-0.1717,0.593,0,0.8505l3.1406,4.711
			C7.7803,34.6703,8.4429,35,9.1606,35H27h4.4848c0.0209,0.0562,0.0673,0.2623-0.2499,0.3641
			c-0.1971,0.0632-2.5092,0.5176-4.2349,0.8532V63h7V35h7c0.5523,0,1-0.4477,1-1V24C42,23.4477,41.5523,23,41,23z"/>
	</g>
</g>
</svg>
